icons/nurse-line.svg

<svg viewBox="0 0 24 24" fill="currentColor" xmlns="http://www.w3.org/2000/svg">
    <path d="M12.0006 15C16.0802 15 19.4466 18.0537 19.9387 22H4.0625C4.55458 18.0537 7.92098 15 12.0006 15ZM10.1875 17.2795C8.75387 17.734 7.54637 18.7133 6.80201 20L12.0006 20L10.1875 17.2795ZM13.8141 17.2797L12.0006 20L17.1992 20C16.4549 18.7135 15.2476 17.7342 13.8141 17.2797ZM18.0006 2V8C18.0006 11.3137 15.3143 14 12.0006 14C8.6869 14 6.00061 11.3137 6.00061 8V2H18.0006ZM8.00061 8C8.00061 10.2091 9.79147 12 12.0006 12C14.2098 12 16.0006 10.2091 16.0006 8H8.00061ZM16.0006 4H8.00061L8.0005 6H16.0005L16.0006 4Z"/>
</svg>

<svg xmlns="http://www.w3.org/2000/svg" viewBox="0 0 24 24">
    <g>
        <path fill="none" d="M0 0H24V24H0z"/>
        <path d="M12 15c4.08 0 7.446 3.054 7.938 7H4.062c.492-3.946 3.858-7 7.938-7zm-1.813 2.28C8.753 17.734 7.546 18.713 6.8 20H12l-1.813-2.72zm3.627 0L12 20h5.199c-.745-1.287-1.952-2.266-3.385-2.72zM18 2v6c0 3.314-2.686 6-6 6s-6-2.686-6-6V2h12zM8 8c0 2.21 1.79 4 4 4s4-1.79 4-4H8zm8-4H8v2h8V4z"/>
    </g>
</svg>
